!!!COM: Anon.
!!!OTL: Buffalo Society Song (c)
!!!MPN: Maisuiaksis [Holding Eagle]
!!!ODT: <1918//
!!!MLC: Fort Berthold Reservation, North Dakota, United States of America
!! Song was recorded during either the summer of 1912, 1915, or 1918.
!!!AGN: monody
!!!AST: Mandan and Hidatsa Men's Buffalo Society
!!!AMT: irregular
!!!RWG: Transcribed pitches, durations, and meters are only approximate.
!! Drum Tempo: MM60
!! Drum-rhythm: (8^ 8) (8^ 8) (8^ 8) (8^ 8)
**kern
*ICvox
*Imale
*clefF4
*k[b-]
*M3/4
*MM100
=1-
8f
8f
4f
4f
=2
8f
8f
2f
=3
8g
8g
4f
16g
8.f
=4
8f
8c
4c
8f
8c
=5
8A
8c
4c
4c
*M2/4
=6
8f
8f
8c
8c
=7
8f
8c
8c
8B-^
*M3/4
=8
4B-
8B-
8A
8F
8B-
=9
4B-
4B-
(12B-
12B-
12B-)
=10
2.F
=11
(12A
12F
12A)
4F
4F
=12
8c
8c
4c
8f
8c
=13
8A
8c
4c
4c
*M2/4
=14
8f
8f
8c
8c
=15
16f
8.c
(8c
8B-)
*M3/4
=16
4B-
8B-
8A
8F
8B-
=17
4B-
4B-
(12B-
12B-
12A)
=18
8F
8F
2F
=19
4F
2F
==
*-
!!!CNT: Hidatsa
!!!TXO: Hidatsa
!!!OCY: United States
!!!OCL: Frances Densmore
!!!YOR: Frances Densmore, "Mandan and Hidatsa Music",
!!!YOR: Bulletin 80, page 140, No. 71
!!!PPR: Smithsonian Institution, Bureau of American Ethnology
!!!PPR: Government Printing Office
!!!PDT: 1923
!!!PPP: Washington, DC, United States of America
!!!YEC: Electronic Copyright 2000 David Huron
!!!YER: August 2000
!!!YEN: United States of America
!!!ENC: David Huron
!!!RDT: August 18, 2000
!!!EEV: Release 1.0
!!!AIN: tom, vox
